X:196
T:Goose Cove (march)
M:C
L:1/8
C:Brenda Stubbert SOCAN
K:D
F>G|"D"A>F A<d f>e d<f|"G"g2 G2 "Em"B d2 B|"D"A>B A<F "Bm"A>B d<f|"Em"e4 e2 F>G|
"D"A>F A<d f>e d<f|"G"g2 G2 "Em"B d2 B|"D"A2 A<d "A"c>d e<f|"G"d4 "D"d2:||
f>g|"D"a>g f<a "C"g>f e<f|"G"g2 G2 "Em"Bd2 B|"D"A>B A<F "Bm"A>B d<f|"Em" e4 e2 [1f<g|
"D"a>g f<a "C"g>f e<f|"G"g<b g<d "Em"B2 e>d|"A"c>B A<g f>e d<c|"G"d4 "D"d2:|
[2F>G|"D"A>F A<d f>e d<f|"G"g2 G2 "Em"B d2 B|"D"A2 A<d "A"c>d e<f|"D"d4 d2||
